X: 1
T:Jockey to the Fair, Sherborne
Q:120
M:6/8
L:1/8
A:Sherborne
P:A(AB)2CBABCBA
K:G
P:A
d|G2A B2c|d2g d2c|BAG GFG |AcB A2B|
c2d efg|a2f d2g|fed ed^c|d3  d2||
P:B
d|dgd dgd|cdc B2d|dgd dgd |cdc B2e|
e2f g2e|d2c B2e|edc B2A |GAF E2D|
G2G GBd|e2f g2e|\
d2c B2A|GAG E2F|G2g B2A |G3  G2||
P:C
M:3/8
d3|\
M:6/8
G3  A3 |B3  c3 |d3  g3  |d3  c3 |\
(2B<d (2B<A|G3 (2FG|(2A<c B3|\
M:3/8
A2A|
M:6/8
Bcd efg|a2f d2g|fed ed^c|d3  d2||

